src/pos-icons/consolidate.svg

<svg height="24" viewBox="0 0 24 24" width="24" xmlns="http://www.w3.org/2000/svg"><path d="m18 9h2v-5h2v5a2 2 0 0 1 -2 2h-2v2l-3-3 3-3m-4 3a2 2 0 1 0 -2 2 2 2 0 0 0 2-2m-12 1v5h2v-5h2v2l3-3-3-3v2h-2a2 2 0 0 0 -2 2m13 5-3-3-3 3h2v2a2 2 0 0 0 2 2h5v-2h-5v-2"/></svg>

<?xml version="1.0" encoding="UTF-8"?><!DOCTYPE svg PUBLIC "-//W3C//DTD SVG 1.1//EN" "http://www.w3.org/Graphics/SVG/1.1/DTD/svg11.dtd"><svg xmlns="http://www.w3.org/2000/svg" xmlns:xlink="http://www.w3.org/1999/xlink" version="1.1" id="mdi-consolidate" width="24" height="24" viewBox="0 0 24 24"><path d="M18 9H20V4H22V9A2 2 0 0 1 20 11H18V13L15 10L18 7M14 10A2 2 0 1 0 12 12A2 2 0 0 0 14 10M2 11V16H4V11H6V13L9 10L6 7V9H4A2 2 0 0 0 2 11M15 16L12 13L9 16H11V18A2 2 0 0 0 13 20H18V18H13V16" /></svg>
